public/static/img/crypto/USDC.svg

<svg width="48" height="48" viewBox="0 0 48 48" fill="none" xmlns="http://www.w3.org/2000/svg">
<g clip-path="url(#clip0_1150_15607)">
<path d="M0 24C0 37.245 10.755 48 24 48C37.245 48 48 37.245 48 24C48 10.755 37.245 0 24 0C10.755 0 0 10.755 0 24Z" fill="#2775C9"/>
<path d="M22.56 15.09V13.5825C22.56 12.78 23.1975 12.1425 24 12.1425C24.8025 12.1425 25.44 12.78 25.44 13.5825V15.075C28.05 15.4575 29.8275 16.95 30.3075 19.0575C30.405 19.5225 30.135 19.9725 29.67 20.085C29.6025 20.1 29.5425 20.1 29.475 20.1H28.6875C28.065 20.1 27.4875 19.7325 27.2175 19.17C26.7225 18.1125 25.5375 17.505 23.97 17.505C22.005 17.505 20.6925 18.465 20.6925 19.905C20.6925 21.06 21.57 21.7275 23.7 22.2375L25.7025 22.7025C29.22 23.505 30.7125 24.96 30.7125 27.5475C30.7125 30.4125 28.71 32.3475 25.4325 32.8125V34.5375C25.4325 35.34 24.795 35.9775 23.9925 35.9775C23.19 35.9775 22.5525 35.34 22.5525 34.5375V32.8275C19.6425 32.475 17.67 30.9375 17.2275 28.59C17.145 28.2075 17.4 27.825 17.79 27.7575C17.835 27.7425 17.8875 27.7425 17.9325 27.7425H19.1175C19.6425 27.7425 20.145 28.05 20.3625 28.53C20.91 29.685 22.2975 30.3825 24.045 30.3825C26.1375 30.3825 27.6 29.34 27.6 27.9C27.6 26.655 26.7075 25.935 24.525 25.4025L22.2675 24.8775C19.065 24.1425 17.55 22.605 17.55 20.1225C17.55 17.475 19.5675 15.555 22.56 15.09ZM6 24C6 16.065 11.1825 9.32995 18.3675 6.95995C18.8175 6.81745 19.3125 7.05745 19.455 7.50745C19.485 7.58995 19.5 7.67995 19.5 7.77745V8.28745C19.5 9.05245 19.035 9.75745 18.315 10.05C12.795 12.2925 8.8875 17.685 8.8875 24C8.8875 30.3075 12.7725 35.715 18.2925 37.935C19.0125 38.22 19.4925 38.925 19.4925 39.7125V40.125C19.4925 40.635 19.08 41.04 18.5775 41.04C18.48 41.04 18.3825 41.025 18.2925 40.995C11.1525 38.64 6 31.92 6 24ZM42 24C42 31.905 36.8775 38.61 29.76 40.995C29.265 41.1675 28.7175 40.8975 28.545 40.4025C28.515 40.305 28.5 40.1925 28.5 40.095V39.7575C28.5 38.955 28.98 38.235 29.715 37.935C35.22 35.6925 39.105 30.3 39.105 24C39.105 17.715 35.235 12.3225 29.73 10.08C28.98 9.77245 28.5 9.03745 28.5 8.24245V7.93495C28.5 7.40995 28.935 6.97495 29.46 6.97495C29.5725 6.97495 29.67 6.98995 29.7675 7.01995C36.8775 9.40495 42 16.11 42 24Z" fill="white"/>
</g>
<defs>
<clipPath id="clip0_1150_15607">
<rect width="48" height="48" fill="white"/>
</clipPath>
</defs>
</svg>

<svg width="48" height="48" fill="none" xmlns="http://www.w3.org/2000/svg"><g clip-path="url(#a)"><path d="M0 24c0 13.245 10.755 24 24 24s24-10.755 24-24S37.245 0 24 0 0 10.755 0 24Z" fill="#2775C9"/><path d="M22.56 15.09v-1.508c0-.802.638-1.44 1.44-1.44.802 0 1.44.638 1.44 1.44v1.493c2.61.383 4.387 1.875 4.867 3.983a.859.859 0 0 1-.637 1.027c-.068.015-.128.015-.195.015h-.788c-.622 0-1.2-.367-1.47-.93-.494-1.058-1.68-1.665-3.247-1.665-1.965 0-3.277.96-3.277 2.4 0 1.155.877 1.822 3.007 2.332l2.003.466c3.517.802 5.01 2.257 5.01 4.845 0 2.865-2.003 4.8-5.28 5.265v1.724a1.43 1.43 0 0 1-1.44 1.44 1.43 1.43 0 0 1-1.44-1.44v-1.71c-2.91-.352-4.883-1.89-5.326-4.237a.699.699 0 0 1 .563-.832c.045-.015.098-.015.143-.015h1.184c.525 0 1.028.307 1.245.787.548 1.155 1.936 1.852 3.683 1.852 2.092 0 3.555-1.042 3.555-2.482 0-1.245-.893-1.965-3.075-2.497l-2.258-.525c-3.202-.736-4.717-2.273-4.717-4.756 0-2.647 2.017-4.567 5.01-5.032ZM6 24c0-7.935 5.182-14.67 12.367-17.04a.866.866 0 0 1 1.133.817v.51c0 .765-.465 1.47-1.185 1.763-5.52 2.242-9.428 7.635-9.428 13.95 0 6.308 3.886 11.715 9.405 13.935.72.285 1.2.99 1.2 1.777v.413a.914.914 0 0 1-1.2.87C11.152 38.64 6 31.92 6 24Zm36 0c0 7.905-5.123 14.61-12.24 16.995a.96.96 0 0 1-1.215-.592 1.09 1.09 0 0 1-.045-.308v-.337c0-.803.48-1.523 1.215-1.823 5.505-2.242 9.39-7.635 9.39-13.935 0-6.285-3.87-11.678-9.375-13.92a1.99 1.99 0 0 1-1.23-1.838v-.307c0-.525.435-.96.96-.96.113 0 .21.015.307.045C36.877 9.405 42 16.11 42 24Z" fill="#fff"/></g><defs><clipPath id="a"><path fill="#fff" d="M0 0h48v48H0z"/></clipPath></defs></svg>
